X:1
T:Leave Her, Johnny, Leave Her
M:4/4
L:1/4
K:C
 z2 G3/2 G/2| CE/2-G/2 G c3/4 B/4| A G E- C| D D D3/2 C/2|E/2-G/2 G z G/2G/2|\
 A3/2 A/2 GE/2-E/2| F G E C/2D/2| E3/2 E/2 G3/2 C/2| D C2 z| D D D3/2 C/2|\
 E G2 c/2B/2| A A A3/2 G/2| E G2 G/2G/2| A/2A/2 A G E/2E/2| F G E C/2D/2|\
 E3/2 E/2 E3/2 D/2| D/2 C3/2 z2|
